posts/2023-04-12/visual-book-recommender/imgs-web/pmi.svg

<svg xmlns="http://www.w3.org/2000/svg" xmlns:xlink="http://www.w3.org/1999/xlink" width="184.632" height="43.8" viewBox="0 -1460 10200.9 2420" xmlns:v="https://vecta.io/nano"><defs><path id="A" d="M23 287q1 3 2 8 1 5 5 22 4 17 10 31 6 14 15 33 9 19 20 30 11 11 26 22 15 11 33 9 75 0 96-64l10 9q62 55 118 55 65 0 102-47 37-47 37-114 0-108-76-199-76-91-172-92-22 0-39 6-11 5-23 15-12 10-19 17l-7 8q-1-1-22-87-21-86-21-87 0-6 8-7 8-1 37-3h25q6-7 6-9 0-2-3-18-3-12-6-15-3-3-13-4-2 0-11 0-9 0-34 1-25 1-62 1-70 0-89-2h-8q-7 7-7 11 2 27 13 35h20q34 1 39 12 3 6 61 239 58 233 61 247 1 5 1 14 0 41-25 41-22 0-37-28-15-28-23-61-8-33-12-36-2-2-16-2H29q-6 6-6 9zm155-185q22-76 74-76 30 0 58 23 28 23 46 58 18 34 36 108 18 74 19 110v6q0 74-61 74-11 0-22-3-11-3-22-9-11-6-20-13-9-7-17-15-8-8-15-15-7-7-11-14-4-7-8-10l-3-4q0-1-3-14-3-13-11-44-8-31-14-52-26-106-26-110z"/><path id="B" d="M21 287q1 6 3 16 2 10 12 38 10 28 20 47 10 19 32 37 22 18 44 17 22-1 43-7 21-6 30-18 9-12 16-22 7-10 8-19l2-7q0-2 1-2l11 11q60 64 141 64 17 0 31-2 14-2 26-7 12-5 19-10 7-5 15-12 8-7 10-13 2-6 8-13 6-7 4-12-2-5 3-9 5-4 2-7l8 10q63 75 149 75 54 0 87-27 33-27 34-79 0-51-38-158-38-107-38-128 1-14 5-19 4-5 15-5 28 0 52 30 24 30 39 82 3 11 6 13 3 2 16 2 20 0 20-8 0-1-4-15-8-29-22-57-14-28-46-56-32-28-69-27-47 0-68 27-21 27-21 56 0 19 36 120 36 101 37 152 0 59-44 59h-5q-86 0-145-101l-7-12-33-134Q433 26 428 16q-13-27-43-27-13 0-21 7-8 7-11 12-3 5-3 10 0 11 34 143l36 146q3 15 3 38 0 59-44 59h-5q-86 0-145-101l-7-12-33-134Q156 26 151 16q-13-27-43-27-13 0-21 6-8 6-11 12-3 6-2 10 0 13 38 164 39 154 39 161 3 15 3 27 0 36-25 36-22 0-37-28-15-28-23-61-8-33-12-36-2-2-16-2H27q-6 6-6 9z"/><path id="C" d="M184 600q0 24 19 42 19 18 44 19 18 0 30-12 12-12 13-30 0-23-20-42-20-19-44-20-15 0-28 10-13 10-14 33zM21 287q0 8 9 31 9 23 24 51 15 28 44 51 29 23 60 22 39 0 65-23 26-23 27-62 0-17-14-56-14-39-40-105-26-66-42-113-5-22-5-32 0-25 17-25 9 0 19 3 10 3 23 14 13 11 27 35 14 24 25 59 3 12 5 14 2 2 17 2 20 0 20-10 0-8-9-31-9-23-25-51-16-28-45-50-29-22-62-22-32 0-59 21-27 21-28 64 0 17 5 32 5 15 43 114 38 101 44 121 6 20 7 39 0 24-17 24h-2q-30 0-55-33-25-33-38-84-1-1-2-3-1-2-1-3 0-1-2-2-2-1-3-1-1 0-4 0-3 0-8 0H27q-6 6-6 9z"/><path id="D" d="M94 250Q94 319 104 381T127 488T164 576T202 643T244 695T277 729T302 750H315H319Q333 750 333 741Q333 738 316 720T275 667T226 581T184 443T167 250T184 58T225 -81T274 -167T316 -220T333 -241Q333 -250 318 -250H315H302L274 -226Q180 -141 137 -14T94 250Z"/><path id="E" d="M33 157q0 101 76 192 76 91 171 92 51 0 90-49 16 30 46 30 13 0 23-8 10-8 10-20 0-13-37-160-37-147-38-166 0-25 7-33 7-8 21-9 9 1 20 9 21 20 41 96 6 20 10 21 2 1 10 1h4q19 0 19-9 0-6-5-27-5-21-20-54-15-33-32-50-13-13-32-21-8-2-24-2-34 0-57 15-23 15-30 31l-6 15q-1 1-4-1-2-2-4-4-59-56-120-56-55 0-97 40-42 40-42 127zm318 171q0 6-5 22-5 16-23 35-18 19-46 20-35 0-67-31-32-31-50-81-29-79-41-164 0-3 0-11 0-8-1-12 0-45 18-62 18-17 43-18 38 0 75 33 37 33 44 51 2 4 27 107 25 103 26 111z"/><path id="F" d="M78 370Q78 394 95 412T138 430Q162 430 180 414T199 371Q199 346 182 328T139 310T96 327T78 370ZM78 60Q78 85 94 103T137 121Q202 121 202 8Q202 -44 183 -94T144 -169T118 -194Q115 -194 106 -186T95 -174Q94 -171 107 -155T137 -107T160 -38Q161 -32 162 -22T165 -4T165 4Q165 5 161 4T142 0Q110 0 94 18T78 60Z"/><path id="G" d="M73 647q0 10 4 23 4 13 12 13 1 0 72 5 71 5 73 6 12 0 12-9 0-9-34-143-8-34-17-70-9-36-15-54l-4-19q0-3 6 3 49 40 101 40 62 0 100-46 38-46 39-116 0-111-79-201-79-90-170-90-50 0-91 38-41 38-42 123v9q0 21 8 58 8 37 49 197 50 197 50 209 0 12-38 14-5 0-8 0h-5q-10 0-13 0-3 0-7 3-4 3-3 7zm263-322v6q0 74-61 74-17 0-35-8-18-8-33-21-15-13-26-24-11-11-18-22l-6-8-21-86q-22-86-22-122 0-48 24-72 16-16 40-16 33 0 67 32 25 23 40 56 15 33 33 105 18 72 18 106z"/><path id="H" d="M60 749l4 1q5 0 10 0h12l28-24q94-85 137-212 43-127 43-264 0-68-10-131-10-63-23-107-13-44-37-88-24-44-38-67-14-23-41-51-27-28-32-33-5-5-23-19-3-3-4-4H74q-8 0-11 0-3 0-5 3-2 3-3 9 1 1 11 13Q221-64 221 250q0 314-155 475-10 12-11 13 0 8 5 11z"/><path id="I" d="M56 347q0 13 14 20h637q15-8 15-20 0-11-14-19l-318-1H72q-16 5-16 20zm0-194q0 15 16 20h636q14-10 14-20 0-13-15-20H70q-14 7-14 20z"/><path id="J" d="M42 46h14q39 0 47 14v8q0 9 0 23 0 14 0 33 0 19 1 43 1 24 0 50-1 26 0 55 1 29 0 57 0 37 0 78 0 41 0 75 0 34 0 60 0 26-1 44-1 18 0 17-3 19-14 25-11 6-45 9H26v23q0 23 2 23l10 1q10 1 29 2 19 1 37 2 17 1 37 2 20 1 30 3 10 2 11 1h3V379q0-317 1-319 4-8 12-11 21-3 49-3h16V0h-8l-23 1q-23 1-49 1-26 0-38 1-12 1-38 0-26-1-50-2L34 0h-8v46h16z"/><path id="K" d="M41 46h14q39 0 47 14v8q0 9 0 23 0 14 0 31 0 17 1 39 1 22 0 42 0 31 0 66 0 35-1 59v23q-3 19-14 25-11 6-45 9H25v23q0 23 2 23l10 1q10 1 28 2 18 1 37 2 17 1 36 2 19 1 29 3 10 2 11 1h3v-40q0-38 1-38 1 0 5 5 4 5 12 15 8 10 19 18 11 8 29 19 18 11 38 16 20 5 51 5 114-4 127-113 1-7 1-139v-86q0-38 2-45 2-7 11-10 21-3 49-3h16V0h-8l-24 1q-23 1-50 1-27 0-38 1-103 0-112-3h-8v46h16q61 0 61 16 1 2 1 138-1 135-2 143-6 28-20 42-14 14-24 17-10 3-26 2-45 0-79-34-27-27-34-55-7-28-8-83v-64-60q0-30 1-40 1-10 3-13 2-3 9-6 21-3 49-3h16V0h-8l-23 1q-24 1-51 1-27 0-38 1Q42 3 33 0h-8v46h16z"/><path id="L" d="M78 35T78 60T94 103T137 121Q165 121 187 96T210 8Q210 -27 201 -60T180 -117T154 -158T130 -185T117 -194Q113 -194 104 -185T95 -172Q95 -168 106 -156T131 -126T157 -76T173 -3V9L172 8Q170 7 167 6T161 3T152 1T140 0Q113 0 96 17Z"/></defs><g transform="scale(1 -1)"><use xlink:href="#A"/><use xlink:href="#B" x="503"/><use xlink:href="#C" x="1381"/><g transform="translate(1726)"><use xlink:href="#D"/><use xlink:href="#E" x="389"/><use xlink:href="#F" x="918"/><use xlink:href="#G" x="1362.7"/><use xlink:href="#H" x="1791.7"/></g><use xlink:href="#I" x="4184.4"/><g transform="translate(5240.2)"><use xlink:href="#J"/><use xlink:href="#K" x="278"/></g><use xlink:href="#L" x="6074.2"/><g transform="translate(6240.9)"><g transform="translate(638.2 710)"><use xlink:href="#A"/><g transform="translate(503)"><use xlink:href="#D"/><use xlink:href="#E" x="389"/><use xlink:href="#L" x="918"/><use xlink:href="#G" x="1362.7"/><use xlink:href="#H" x="1791.7"/></g></g><g transform="translate(220 -710)"><use xlink:href="#A"/><g transform="translate(503)"><use xlink:href="#D"/><use xlink:href="#E" x="389"/><use xlink:href="#H" x="918"/></g><use xlink:href="#A" x="1810"/><g transform="translate(2313)"><use xlink:href="#D"/><use xlink:href="#G" x="389"/><use xlink:href="#H" x="818"/></g></g><path d="M120 220h3720v60H120z"/></g></g></svg>

<?xml version="1.0" encoding="UTF-8" standalone="no" ?>
<svg xmlns="http://www.w3.org/2000/svg" width="184.632px" height="43.800px" viewBox="0 -1460 10200.9 2420" xmlns:xlink="http://www.w3.org/1999/xlink"><defs><path id="MJX-9-TEX-I-70" d="M23 287Q24 290 25 295T30 317T40 348T55 381T75 411T101 433T134 442Q209 442 230 378L240 387Q302 442 358 442Q423 442 460 395T497 281Q497 173 421 82T249 -10Q227 -10 210 -4Q199 1 187 11T168 28L161 36Q160 35 139 -51T118 -138Q118 -144 126 -145T163 -148H188Q194 -155 194 -157T191 -175Q188 -187 185 -190T172 -194Q170 -194 161 -194T127 -193T65 -192Q-5 -192 -24 -194H-32Q-39 -187 -39 -183Q-37 -156 -26 -148H-6Q28 -147 33 -136Q36 -130 94 103T155 350Q156 355 156 364Q156 405 131 405Q109 405 94 377T71 316T59 280Q57 278 43 278H29Q23 284 23 287ZM178 102Q200 26 252 26Q282 26 310 49T356 107Q374 141 392 215T411 325V331Q411 405 350 405Q339 405 328 402T306 393T286 380T269 365T254 350T243 336T235 326L232 322Q232 321 229 308T218 264T204 212Q178 106 178 102Z"></path><path id="MJX-9-TEX-I-6D" d="M21 287Q22 293 24 303T36 341T56 388T88 425T132 442T175 435T205 417T221 395T229 376L231 369Q231 367 232 367L243 378Q303 442 384 442Q401 442 415 440T441 433T460 423T475 411T485 398T493 385T497 373T500 364T502 357L510 367Q573 442 659 442Q713 442 746 415T780 336Q780 285 742 178T704 50Q705 36 709 31T724 26Q752 26 776 56T815 138Q818 149 821 151T837 153Q857 153 857 145Q857 144 853 130Q845 101 831 73T785 17T716 -10Q669 -10 648 17T627 73Q627 92 663 193T700 345Q700 404 656 404H651Q565 404 506 303L499 291L466 157Q433 26 428 16Q415 -11 385 -11Q372 -11 364 -4T353 8T350 18Q350 29 384 161L420 307Q423 322 423 345Q423 404 379 404H374Q288 404 229 303L222 291L189 157Q156 26 151 16Q138 -11 108 -11Q95 -11 87 -5T76 7T74 17Q74 30 112 181Q151 335 151 342Q154 357 154 369Q154 405 129 405Q107 405 92 377T69 316T57 280Q55 278 41 278H27Q21 284 21 287Z"></path><path id="MJX-9-TEX-I-69" d="M184 600Q184 624 203 642T247 661Q265 661 277 649T290 619Q290 596 270 577T226 557Q211 557 198 567T184 600ZM21 287Q21 295 30 318T54 369T98 420T158 442Q197 442 223 419T250 357Q250 340 236 301T196 196T154 83Q149 61 149 51Q149 26 166 26Q175 26 185 29T208 43T235 78T260 137Q263 149 265 151T282 153Q302 153 302 143Q302 135 293 112T268 61T223 11T161 -11Q129 -11 102 10T74 74Q74 91 79 106T122 220Q160 321 166 341T173 380Q173 404 156 404H154Q124 404 99 371T61 287Q60 286 59 284T58 281T56 279T53 278T49 278T41 278H27Q21 284 21 287Z"></path><path id="MJX-9-TEX-N-28" d="M94 250Q94 319 104 381T127 488T164 576T202 643T244 695T277 729T302 750H315H319Q333 750 333 741Q333 738 316 720T275 667T226 581T184 443T167 250T184 58T225 -81T274 -167T316 -220T333 -241Q333 -250 318 -250H315H302L274 -226Q180 -141 137 -14T94 250Z"></path><path id="MJX-9-TEX-I-61" d="M33 157Q33 258 109 349T280 441Q331 441 370 392Q386 422 416 422Q429 422 439 414T449 394Q449 381 412 234T374 68Q374 43 381 35T402 26Q411 27 422 35Q443 55 463 131Q469 151 473 152Q475 153 483 153H487Q506 153 506 144Q506 138 501 117T481 63T449 13Q436 0 417 -8Q409 -10 393 -10Q359 -10 336 5T306 36L300 51Q299 52 296 50Q294 48 292 46Q233 -10 172 -10Q117 -10 75 30T33 157ZM351 328Q351 334 346 350T323 385T277 405Q242 405 210 374T160 293Q131 214 119 129Q119 126 119 118T118 106Q118 61 136 44T179 26Q217 26 254 59T298 110Q300 114 325 217T351 328Z"></path><path id="MJX-9-TEX-N-3B" d="M78 370Q78 394 95 412T138 430Q162 430 180 414T199 371Q199 346 182 328T139 310T96 327T78 370ZM78 60Q78 85 94 103T137 121Q202 121 202 8Q202 -44 183 -94T144 -169T118 -194Q115 -194 106 -186T95 -174Q94 -171 107 -155T137 -107T160 -38Q161 -32 162 -22T165 -4T165 4Q165 5 161 4T142 0Q110 0 94 18T78 60Z"></path><path id="MJX-9-TEX-I-62" d="M73 647Q73 657 77 670T89 683Q90 683 161 688T234 694Q246 694 246 685T212 542Q204 508 195 472T180 418L176 399Q176 396 182 402Q231 442 283 442Q345 442 383 396T422 280Q422 169 343 79T173 -11Q123 -11 82 27T40 150V159Q40 180 48 217T97 414Q147 611 147 623T109 637Q104 637 101 637H96Q86 637 83 637T76 640T73 647ZM336 325V331Q336 405 275 405Q258 405 240 397T207 376T181 352T163 330L157 322L136 236Q114 150 114 114Q114 66 138 42Q154 26 178 26Q211 26 245 58Q270 81 285 114T318 219Q336 291 336 325Z"></path><path id="MJX-9-TEX-N-29" d="M60 749L64 750Q69 750 74 750H86L114 726Q208 641 251 514T294 250Q294 182 284 119T261 12T224 -76T186 -143T145 -194T113 -227T90 -246Q87 -249 86 -250H74Q66 -250 63 -250T58 -247T55 -238Q56 -237 66 -225Q221 -64 221 250T66 725Q56 737 55 738Q55 746 60 749Z"></path><path id="MJX-9-TEX-N-3D" d="M56 347Q56 360 70 367H707Q722 359 722 347Q722 336 708 328L390 327H72Q56 332 56 347ZM56 153Q56 168 72 173H708Q722 163 722 153Q722 140 707 133H70Q56 140 56 153Z"></path><path id="MJX-9-TEX-N-6C" d="M42 46H56Q95 46 103 60V68Q103 77 103 91T103 124T104 167T104 217T104 272T104 329Q104 366 104 407T104 482T104 542T103 586T103 603Q100 622 89 628T44 637H26V660Q26 683 28 683L38 684Q48 685 67 686T104 688Q121 689 141 690T171 693T182 694H185V379Q185 62 186 60Q190 52 198 49Q219 46 247 46H263V0H255L232 1Q209 2 183 2T145 3T107 3T57 1L34 0H26V46H42Z"></path><path id="MJX-9-TEX-N-6E" d="M41 46H55Q94 46 102 60V68Q102 77 102 91T102 122T103 161T103 203Q103 234 103 269T102 328V351Q99 370 88 376T43 385H25V408Q25 431 27 431L37 432Q47 433 65 434T102 436Q119 437 138 438T167 441T178 442H181V402Q181 364 182 364T187 369T199 384T218 402T247 421T285 437Q305 442 336 442Q450 438 463 329Q464 322 464 190V104Q464 66 466 59T477 49Q498 46 526 46H542V0H534L510 1Q487 2 460 2T422 3Q319 3 310 0H302V46H318Q379 46 379 62Q380 64 380 200Q379 335 378 343Q372 371 358 385T334 402T308 404Q263 404 229 370Q202 343 195 315T187 232V168V108Q187 78 188 68T191 55T200 49Q221 46 249 46H265V0H257L234 1Q210 2 183 2T145 3Q42 3 33 0H25V46H41Z"></path><path id="MJX-9-TEX-N-2061" d=""></path><path id="MJX-9-TEX-N-2C" d="M78 35T78 60T94 103T137 121Q165 121 187 96T210 8Q210 -27 201 -60T180 -117T154 -158T130 -185T117 -194Q113 -194 104 -185T95 -172Q95 -168 106 -156T131 -126T157 -76T173 -3V9L172 8Q170 7 167 6T161 3T152 1T140 0Q113 0 96 17Z"></path></defs><g stroke="currentColor" fill="currentColor" stroke-width="0" transform="matrix(1 0 0 -1 0 0)"><g data-mml-node="math"><g data-mml-node="mi"><use xlink:href="#MJX-9-TEX-I-70"></use></g><g data-mml-node="mi" transform="translate(503, 0)"><use xlink:href="#MJX-9-TEX-I-6D"></use></g><g data-mml-node="mi" transform="translate(1381, 0)"><use xlink:href="#MJX-9-TEX-I-69"></use></g><g data-mml-node="mrow" transform="translate(1726, 0)"><g data-mml-node="mo"><use xlink:href="#MJX-9-TEX-N-28"></use></g><g data-mml-node="mi" transform="translate(389, 0)"><use xlink:href="#MJX-9-TEX-I-61"></use></g><g data-mml-node="mo" transform="translate(918, 0)"><use xlink:href="#MJX-9-TEX-N-3B"></use></g><g data-mml-node="mi" transform="translate(1362.7, 0)"><use xlink:href="#MJX-9-TEX-I-62"></use></g><g data-mml-node="mo" transform="translate(1791.7, 0)"><use xlink:href="#MJX-9-TEX-N-29"></use></g></g><g data-mml-node="mo" transform="translate(4184.4, 0)"><use xlink:href="#MJX-9-TEX-N-3D"></use></g><g data-mml-node="mi" transform="translate(5240.2, 0)"><use xlink:href="#MJX-9-TEX-N-6C"></use><use xlink:href="#MJX-9-TEX-N-6E" transform="translate(278, 0)"></use></g><g data-mml-node="mo" transform="translate(6074.2, 0)"><use xlink:href="#MJX-9-TEX-N-2061"></use></g><g data-mml-node="mfrac" transform="translate(6240.9, 0)"><g data-mml-node="mrow" transform="translate(638.2, 710)"><g data-mml-node="mi"><use xlink:href="#MJX-9-TEX-I-70"></use></g><g data-mml-node="mrow" transform="translate(503, 0)"><g data-mml-node="mo"><use xlink:href="#MJX-9-TEX-N-28"></use></g><g data-mml-node="mi" transform="translate(389, 0)"><use xlink:href="#MJX-9-TEX-I-61"></use></g><g data-mml-node="mo" transform="translate(918, 0)"><use xlink:href="#MJX-9-TEX-N-2C"></use></g><g data-mml-node="mi" transform="translate(1362.7, 0)"><use xlink:href="#MJX-9-TEX-I-62"></use></g><g data-mml-node="mo" transform="translate(1791.7, 0)"><use xlink:href="#MJX-9-TEX-N-29"></use></g></g></g><g data-mml-node="mrow" transform="translate(220, -710)"><g data-mml-node="mi"><use xlink:href="#MJX-9-TEX-I-70"></use></g><g data-mml-node="mrow" transform="translate(503, 0)"><g data-mml-node="mo"><use xlink:href="#MJX-9-TEX-N-28"></use></g><g data-mml-node="mi" transform="translate(389, 0)"><use xlink:href="#MJX-9-TEX-I-61"></use></g><g data-mml-node="mo" transform="translate(918, 0)"><use xlink:href="#MJX-9-TEX-N-29"></use></g></g><g data-mml-node="mi" transform="translate(1810, 0)"><use xlink:href="#MJX-9-TEX-I-70"></use></g><g data-mml-node="mrow" transform="translate(2313, 0)"><g data-mml-node="mo"><use xlink:href="#MJX-9-TEX-N-28"></use></g><g data-mml-node="mi" transform="translate(389, 0)"><use xlink:href="#MJX-9-TEX-I-62"></use></g><g data-mml-node="mo" transform="translate(818, 0)"><use xlink:href="#MJX-9-TEX-N-29"></use></g></g></g><rect width="3720" height="60" x="120" y="220"></rect></g></g></g></svg>
